public/illustrations/_stethoscope.svg

<svg width="257" height="253" viewBox="0 0 257 253" fill="none" xmlns="http://www.w3.org/2000/svg">
<path d="M130.237 222.875C119.052 214.805 107.017 208.858 92.8579 208.15C81.531 207.584 70.3458 207.584 59.0189 207.725C47.6919 207.725 36.3649 208.291 25.6043 204.185C10.8793 198.664 1.81774 188.47 0.118697 172.47C-1.43876 157.321 12.5785 141.605 27.5867 141.038C38.0641 140.755 47.9749 143.304 57.7444 146.277C68.2218 149.392 78.5578 150.525 88.752 144.861C94.4155 141.888 99.0879 137.357 102.203 131.693C98.8047 130.136 95.5482 128.72 92.2917 127.163C80.54 121.358 72.0447 112.58 68.7882 99.6953C66.5228 91.0585 68.0803 82.2801 70.2041 73.785C74.0269 58.6353 78.2746 43.6272 82.3806 28.4775C83.0886 25.221 84.0795 22.1062 85.3538 18.9913C90.5925 8.08916 99.6543 3.84137 111.831 6.38992C113.813 6.81468 115.795 7.38116 118.202 7.9475C118.91 6.39006 119.335 4.83268 120.042 3.41682C121.317 0.868272 123.441 -0.68945 126.272 0.301652C126.98 0.443238 127.547 0.726548 128.113 1.15131C128.68 1.57606 129.104 2.14255 129.387 2.70889C129.67 3.27523 129.954 3.98303 129.954 4.69096C129.954 5.39888 129.954 6.10668 129.67 6.67302C127.83 12.7612 125.989 18.991 124.007 25.0792C123.016 28.1941 120.892 29.8932 117.494 29.0437C114.662 28.3357 113.388 25.3626 114.238 21.823C114.521 20.6903 114.804 19.5575 115.087 18.1416C112.538 17.4337 110.273 16.7257 107.866 16.3009C101.636 15.1682 97.1054 17.4338 95.2648 23.522C90.4509 39.3796 85.9202 55.237 81.531 71.0946C80.2567 75.6254 79.9735 80.4395 78.9824 85.1119C76.2922 98.4209 81.9558 108.19 92.5748 114.986C103.619 122.066 115.653 126.596 129.104 126.738C139.015 126.738 145.67 121.358 150.484 113.712C154.731 107.341 158.271 100.403 160.961 93.1822C166.483 77.8909 171.297 62.3165 176.253 46.8836C177.385 43.4856 176.394 40.7954 172.854 39.3795C168.465 37.6805 164.076 36.1232 159.828 34.5657C156.855 40.5123 154.731 41.9281 151.616 40.7954C148.501 39.6627 147.794 36.6895 149.634 31.0261C151.192 26.2122 152.749 21.2566 154.448 16.4427C155.864 12.3367 158.412 10.6374 161.527 11.6285C164.642 12.6196 165.492 15.4516 164.359 19.6992C163.934 21.2567 163.51 22.8138 162.943 24.3713C167.474 26.0703 171.863 27.4862 175.969 29.3268C186.163 33.9991 189.42 40.5123 186.164 51.1312C180.925 67.5552 175.686 84.1207 169.315 100.261C165.775 109.04 160.961 117.252 155.156 124.756C147.227 135.092 135.9 139.056 122.874 136.649C116.361 135.375 112.114 136.366 107.441 142.454C95.5481 157.745 79.2656 162.559 60.293 157.746C51.373 155.339 42.4533 153.356 33.2502 151.94C22.2064 150.525 16.8261 154.064 12.2953 163.692C8.8972 170.771 11.0209 180.399 17.1091 186.771C24.4716 194.558 33.9579 196.823 44.0105 197.248C50.2403 197.531 56.6118 197.248 62.8416 196.965C77.5666 196.398 92.1499 196.54 106.592 199.796C118.06 202.487 127.83 208.716 137.599 214.946C150.909 207.584 160.253 212.256 166.058 219.194C171.863 226.131 171.58 237.034 165.492 244.396C162.519 248.219 158.129 250.768 153.457 251.9C148.643 252.891 143.688 252.325 139.44 250.06C129.954 245.246 127.122 236.467 130.661 222.733L130.237 222.875ZM149.917 221.884C147.086 221.884 144.254 222.875 142.272 224.857C140.148 226.839 138.874 229.53 138.732 232.361C138.732 233.636 139.015 234.91 139.44 236.184C139.865 237.317 140.714 238.449 141.564 239.299C142.413 240.148 143.546 240.856 144.679 241.423C145.811 241.989 147.086 242.131 148.501 242.131C151.333 242.131 154.023 240.998 156.147 239.016C158.271 237.034 159.404 234.343 159.545 231.512C159.545 225.707 155.864 221.884 149.917 221.884Z" fill="#102185"/>
<path d="M240.391 78.316C242.373 83.5547 245.913 87.944 250.586 91.2005C252.002 92.1916 253.276 93.1826 254.55 94.3153C258.373 97.855 257.24 102.952 252.285 104.509C250.444 105.076 248.462 105.359 246.621 105.784C232.321 109.748 223.118 119.376 217.313 132.544C216.746 134.101 216.039 135.658 215.189 137.074C213.773 139.481 211.083 140.614 208.959 139.198C207.26 137.782 206.127 135.942 205.844 133.676C205.561 131.836 206.977 129.853 207.543 127.871C209.95 119.093 212.782 110.314 214.622 101.253C215.33 98.5628 215.189 95.731 214.339 93.0409C213.348 90.3507 211.649 88.0856 209.384 86.5281C208.534 85.6786 207.968 84.8291 207.543 83.6964C207.26 82.5637 207.118 81.4308 207.26 80.2981C207.826 78.5991 210.517 77.0417 212.64 76.4754C214.764 75.7674 217.454 76.1921 219.861 76.0505C231.471 74.9178 237.559 67.2724 241.807 57.503C242.373 55.9455 242.94 54.3882 243.648 52.9723C245.205 50.4238 247.47 49.4325 250.302 50.7068C252.992 51.9811 253.7 54.2466 252.851 57.2199C250.585 65.4319 246.055 72.3694 240.391 78.5992V78.316ZM225.525 104.226L239.825 96.5805L231.047 84.1212L223.967 86.1033C224.392 92.3331 224.958 98.2796 225.525 104.085V104.226Z" fill="#102185"/>
</svg>

<svg xmlns="http://www.w3.org/2000/svg" width="257" height="253" fill="none" viewBox="0 0 257 253"><path fill="#102185" d="M130.237 222.875c-11.185-8.07-23.22-14.017-37.38-14.725-11.326-.566-22.511-.566-33.838-.425-11.327 0-22.654.566-33.415-3.54C10.88 198.664 1.818 188.47.12 172.47c-1.558-15.149 12.46-30.865 27.468-31.432 10.477-.283 20.388 2.266 30.157 5.239 10.478 3.115 20.814 4.248 31.008-1.416 5.663-2.973 10.336-7.504 13.451-13.168-3.398-1.557-6.655-2.973-9.911-4.53-11.752-5.805-20.247-14.583-23.504-27.468-2.265-8.636-.708-17.415 1.416-25.91 3.823-15.15 8.07-30.158 12.177-45.307.708-3.257 1.698-6.372 2.973-9.487C90.593 8.09 99.654 3.841 111.83 6.39c1.982.425 3.964.991 6.371 1.558.708-1.558 1.133-3.115 1.84-4.531 1.275-2.549 3.399-4.106 6.23-3.115.708.141 1.275.425 1.841.85.567.424.991.99 1.274 1.557.283.566.567 1.274.567 1.982s0 1.416-.284 1.982c-1.84 6.088-3.681 12.318-5.663 18.406-.991 3.115-3.115 4.814-6.513 3.965-2.832-.708-4.106-3.681-3.256-7.221.283-1.133.566-2.265.849-3.681-2.549-.708-4.814-1.416-7.221-1.841-6.23-1.133-10.76 1.133-12.601 7.221C90.45 39.38 85.92 55.237 81.53 71.095c-1.274 4.53-1.558 9.344-2.549 14.017-2.69 13.309 2.974 23.078 13.593 29.874 11.044 7.08 23.078 11.61 36.529 11.752 9.911 0 16.566-5.38 21.38-13.026a100.2 100.2 0 0 0 10.477-20.53c5.522-15.291 10.336-30.866 15.292-46.298 1.132-3.398.141-6.089-3.399-7.504-4.389-1.7-8.778-3.257-13.026-4.814-2.973 5.946-5.097 7.362-8.212 6.23-3.115-1.133-3.822-4.106-1.982-9.77 1.558-4.814 3.115-9.77 4.814-14.583 1.416-4.106 3.964-5.806 7.079-4.815 3.115.992 3.965 3.824 2.832 8.071-.425 1.558-.849 3.115-1.416 4.672 4.531 1.7 8.92 3.115 13.026 4.956 10.194 4.672 13.451 11.185 10.195 21.804-5.239 16.424-10.478 32.99-16.849 49.13-3.54 8.779-8.354 16.991-14.159 24.495-7.929 10.336-19.256 14.3-32.282 11.893-6.513-1.274-10.76-.283-15.433 5.805-11.893 15.291-28.175 20.105-47.148 15.292-8.92-2.407-17.84-4.39-27.043-5.806-11.044-1.415-16.424 2.124-20.955 11.752-3.398 7.079-1.274 16.707 4.814 23.079 7.363 7.787 16.849 10.052 26.902 10.477 6.23.283 12.6 0 18.83-.283 14.726-.567 29.309-.425 43.751 2.831 11.468 2.691 21.238 8.92 31.007 15.15 13.31-7.362 22.654-2.69 28.459 4.248 5.805 6.937 5.522 17.84-.566 25.202-2.973 3.823-7.363 6.372-12.035 7.504-4.814.991-9.769.425-14.017-1.84-9.486-4.814-12.318-13.593-8.779-27.327zm19.68-.991c-2.831 0-5.663.991-7.645 2.973-2.124 1.982-3.398 4.673-3.54 7.504 0 1.275.283 2.549.708 3.823.425 1.133 1.274 2.265 2.124 3.115.849.849 1.982 1.557 3.115 2.124 1.132.566 2.407.708 3.822.708 2.832 0 5.522-1.133 7.646-3.115s3.257-4.673 3.398-7.504c0-5.805-3.681-9.628-9.628-9.628M240.391 78.316c1.982 5.239 5.522 9.628 10.195 12.885a43 43 0 0 1 3.964 3.114c3.823 3.54 2.69 8.637-2.265 10.194-1.841.567-3.823.85-5.664 1.275-14.3 3.964-23.503 13.592-29.308 26.76-.567 1.557-1.274 3.114-2.124 4.53-1.416 2.407-4.106 3.54-6.23 2.124-1.699-1.416-2.832-3.256-3.115-5.522-.283-1.84 1.133-3.823 1.699-5.805 2.407-8.778 5.239-17.557 7.079-26.618.708-2.69.567-5.522-.283-8.212-.991-2.69-2.69-4.955-4.955-6.513-.85-.85-1.416-1.699-1.841-2.832-.283-1.132-.425-2.265-.283-3.398.566-1.699 3.257-3.256 5.38-3.823 2.124-.708 4.814-.283 7.221-.424 11.61-1.133 17.698-8.779 21.946-18.548.566-1.557 1.133-3.115 1.841-4.53 1.557-2.55 3.822-3.54 6.654-2.266 2.69 1.274 3.398 3.54 2.549 6.513-2.266 8.212-6.796 15.15-12.46 21.38zm-14.866 25.91 14.3-7.645-8.778-12.46-7.08 1.982c.425 6.23.991 12.177 1.558 17.982z"/></svg>
